X: 682
T: Jenny Lynn
C:Traditional, Bill Monroe solo
B: jims roots
M:4/4
L:1/8
Q: 1/4=100
K:A
V:1 
%480
|: "A"eeee eeee | fece ec A2 | Acc[ee] e2 ee | fe e2 e2 c2 |
|: "A"cccc c2 cB | ABcA BA A2 | Acce e2 cB | "E"ABcA "A"B2 A2:|
|: "A"A2 A2 BBcB | ABAc BA A2 | A2 ce e2 cB | "E"ABcA "A"BA A2:|
V:ee 
eee eeee | fece e2 c2 | [ee]eee [e2e2] cB | "E"ABcA "A"BA A2:|
% abcbook-tune_id 6298c25d52ceb59ebc60dd43


% abcbook-boost 0
% abcbook-tablature 
% abcbook-transpose 
% abcbook-lastupdated 1654178399132
% abcbook-soundfonts 
% abcbook-repeats 1


